file/thyssenkrupp.svg

<svg clip-rule="evenodd" fill-rule="evenodd" stroke-linejoin="round" stroke-miterlimit="1.41421" viewBox="0 0 560 400" xmlns="http://www.w3.org/2000/svg"><g fill="#0095d8" fill-rule="nonzero" transform="matrix(2.63619 0 0 2.63619 59.012 6.59182)"><path d="m102.23 52.858c-.157-9.635-8.038-17.425-17.709-17.425s-17.552 7.791-17.709 17.425c-6.255 2.738-10.637 8.983-10.637 16.236 0 9.769 7.947 17.716 17.716 17.716 3.985 0 7.667-1.324 10.63-3.553 2.963 2.229 6.645 3.553 10.63 3.553 9.769 0 17.717-7.948 17.717-17.716-.001-7.252-4.384-13.498-10.638-16.236zm-10.701 14.609c-.41-4.474-2.488-8.471-5.608-11.363 1.843-1.313 3.974-2.244 6.28-2.677 1.565 2.944 3.007 6.519 4.284 10.244-1.38 1.569-3.062 2.866-4.956 3.796zm-7.008 13.499c-3.035-2.72-5.023-6.583-5.283-10.905 1.669.522 3.444.805 5.283.805s3.614-.282 5.283-.805c-.261 4.323-2.249 8.185-5.283 10.905zm-11.965-17.294c1.277-3.725 2.718-7.3 4.284-10.244 2.306.433 4.438 1.364 6.28 2.677-3.12 2.892-5.199 6.889-5.608 11.363-1.894-.931-3.575-2.228-4.956-3.796zm-1.295-1.679c-1.537-2.297-2.493-5.014-2.658-7.938 1.656-.584 3.435-.905 5.288-.905.365 0 .725.017 1.083.041-1.262 2.438-2.5 5.371-3.713 8.802zm6.494-10.185c2.089-3.479 4.373-5.745 6.766-5.745s4.677 2.266 6.766 5.745c-2.492.557-4.79 1.636-6.766 3.123-1.977-1.487-4.273-2.567-6.766-3.123zm6.766 17.286c-1.853 0-3.632-.321-5.288-.905.245-4.347 2.238-8.234 5.288-10.967 3.049 2.733 5.043 6.62 5.288 10.967-1.657.584-3.435.905-5.288.905zm9.546-15.904c.358-.024.719-.041 1.083-.041 1.854 0 3.632.321 5.288.905-.165 2.925-1.121 5.642-2.658 7.938-1.212-3.43-2.451-6.363-3.713-8.802zm-9.546-15.985c8.467 0 15.411 6.635 15.913 14.978-1.669-.522-3.444-.805-5.283-.805-.68 0-1.35.042-2.01.117-2.776-4.788-5.658-7.204-8.62-7.204-2.961 0-5.844 2.416-8.62 7.204-.66-.075-1.33-.117-2.01-.117-1.839 0-3.613.282-5.283.805.502-8.344 7.446-14.978 15.913-14.978zm-26.575 31.89c0-6.279 3.649-11.719 8.936-14.318.318 3.473 1.643 6.657 3.679 9.262-.032.097-.064.19-.096.287-2.547 7.735-4.249 15.547-4.835 18.402-4.604-2.8-7.684-7.864-7.684-13.633zm15.945 15.945c-2.366 0-4.61-.522-6.631-1.45.861-4.412 2.489-11.314 4.659-18.003 1.573 1.594 3.444 2.89 5.523 3.8.082 5.011 2.251 9.522 5.679 12.699-2.608 1.856-5.792 2.954-9.23 2.954zm12.03-2.956c3.427-3.177 5.597-7.688 5.679-12.699 2.079-.91 3.951-2.206 5.524-3.8 2.169 6.689 3.797 13.591 4.659 18.003-2.021.928-4.266 1.45-6.632 1.45-3.439.002-6.623-1.096-9.23-2.954zm17.491.644c-.586-2.855-2.289-10.667-4.835-18.402-.032-.097-.064-.19-.097-.287 2.037-2.604 3.361-5.789 3.679-9.262 5.288 2.599 8.937 8.039 8.937 14.318 0 5.769-3.081 10.833-7.684 13.633z"/><path d="m128.771 106.601c-.252-.11-.468-.266-.646-.468s-.316-.444-.415-.726c-.098-.282-.147-.595-.147-.94v-2.263c0-.38.058-.714.174-1.002s.269-.529.458-.722c.19-.193.412-.337.664-.432s.512-.142.779-.142c.285 0 .551.052.797.156s.449.264.606.481.28.498.37.842c.065.255.111.547.138.873.026.327.04.674.04 1.042 0 .285-.014.603-.04.953-.027.351-.061.639-.103.864-.101.517-.3.92-.597 1.212-.297.291-.712.436-1.247.436-.301.001-.578-.054-.831-.164m-1.207 4.478v-3.93c.137.178.319.362.548.552s.51.34.846.45.732.165 1.189.165c.374 0 .754-.062 1.141-.187.386-.125.73-.343 1.033-.655s.541-.703.713-1.171c.136-.362.237-.789.303-1.279.065-.49.098-1.064.098-1.724 0-.742-.042-1.395-.125-1.956s-.229-1.053-.437-1.475c-.511-1.009-1.41-1.514-2.699-1.514-.636 0-1.171.129-1.608.388-.437.258-.789.602-1.056 1.029l-.044-1.131h-1.693v12.438zm-7.95-4.478c-.252-.11-.468-.266-.646-.468-.179-.202-.316-.444-.415-.726s-.147-.595-.147-.94v-2.263c0-.38.058-.714.173-1.002.116-.288.269-.529.459-.722s.411-.337.663-.432.513-.142.78-.142c.285 0 .551.052.797.156s.448.264.606.481c.157.217.28.498.37.842.065.255.111.547.138.873.027.327.04.674.04 1.042 0 .285-.013.603-.04.953-.027.351-.061.639-.103.864-.101.517-.3.92-.597 1.212-.297.291-.712.436-1.247.436-.3.001-.578-.054-.831-.164m-1.207 4.478v-3.93c.136.178.319.362.548.552s.511.34.846.45c.336.11.732.165 1.189.165.375 0 .754-.062 1.14-.187s.731-.343 1.034-.655.541-.703.712-1.171c.137-.362.238-.789.303-1.279.066-.49.099-1.064.099-1.724 0-.742-.042-1.395-.125-1.956s-.229-1.053-.437-1.475c-.511-1.009-1.411-1.514-2.699-1.514-.636 0-1.172.129-1.608.388-.437.258-.789.602-1.056 1.029l-.045-1.131h-1.692v12.438zm-6.497-3.168c.46-.27.851-.628 1.171-1.073l.018 1.185h1.692v-9.381h-1.791v5.532c0 .315-.068.661-.205 1.038s-.379.711-.726 1.002-.741.436-1.18.436c-.535 0-.933-.135-1.194-.405s-.392-.693-.392-1.27v-6.334h-1.791v6.824c0 .546.08 1.002.24 1.368.161.365.37.658.628.877.258.22.549.376.873.468s.648.138.975.138c.662 0 1.221-.135 1.682-.405m-8.539.111v-4.321c0-.392.05-.846.151-1.363s.346-.97.735-1.359.913-.583 1.572-.583c.22 0 .383.012.49.036v-1.809h-.231c-.606 0-1.152.176-1.639.526s-.874.84-1.158 1.47l-.018-1.978h-1.692v9.381zm-8.65 0v-3.76l1.238-1.256 2.458 5.016h2.031l-3.181-6.352 2.976-3.029h-2.129l-3.394 3.465v-6.78h-1.79v12.696zm-9.36 0v-5.533c0-.32.07-.673.209-1.06.14-.386.381-.721.726-1.006.344-.285.742-.428 1.194-.428.534 0 .923.137 1.167.41.243.273.365.694.365 1.265v6.352h1.791v-6.824c0-.552-.1-1.051-.298-1.497-.199-.445-.505-.781-.918-1.007-.413-.225-.895-.338-1.447-.338-.665 0-1.229.134-1.693.401-.463.268-.855.624-1.176 1.069l-.018-1.185h-1.693v9.381zm-9.1-6.802c.104-.359.242-.645.414-.855s.377-.359.615-.445c.237-.086.499-.129.784-.129.303 0 .604.059.904.178s.541.392.722.819.272 1.021.272 1.782h-3.884c.011-.541.069-.99.173-1.35m3.367 6.891c.46-.136.85-.346 1.167-.628s.589-.637.815-1.064l-1.417-.73c-.077.13-.19.282-.338.454s-.361.322-.637.45-.589.192-.94.192c-.327 0-.625-.042-.895-.125-.271-.083-.503-.226-.7-.428-.196-.202-.347-.472-.454-.811s-.161-.76-.161-1.265v-.258h5.657v-.98c0-.422-.021-.864-.062-1.328s-.138-.896-.29-1.296c-.151-.401-.375-.756-.672-1.065-.268-.267-.603-.479-1.007-.637-.404-.157-.903-.236-1.497-.236-.641 0-1.185.082-1.63.245-.445.164-.82.403-1.123.718-.226.226-.429.518-.61.877-.181.36-.319.826-.414 1.399s-.143 1.219-.143 1.938c0 .552.03 1.05.089 1.492.06.443.164.851.312 1.225.25.647.658 1.154 1.225 1.519s1.314.548 2.241.548c.529-.001 1.024-.069 1.484-.206m-9.203.112c.306-.062.576-.144.811-.245s.437-.212.606-.334c.169-.121.301-.245.396-.369.184-.232.333-.482.445-.753.113-.27.169-.61.169-1.021 0-.344-.039-.638-.116-.881-.078-.244-.167-.449-.268-.615-.143-.214-.348-.429-.615-.646s-.79-.444-1.568-.682c-.392-.113-.739-.226-1.042-.338-.303-.113-.56-.233-.771-.361s-.37-.268-.477-.419c-.106-.151-.16-.325-.16-.521 0-.404.127-.709.383-.917.154-.137.341-.232.561-.285.22-.054.478-.081.775-.081.439 0 .811.094 1.114.281s.541.477.712.869l1.435-.695c-.255-.624-.662-1.088-1.221-1.394-.558-.306-1.244-.459-2.058-.459-.458 0-.898.057-1.323.169-.425.113-.782.279-1.07.499s-.506.475-.654.766c-.131.231-.222.472-.272.721-.05.25-.076.479-.076.686 0 .238.036.489.107.753.072.265.193.506.366.726.136.172.332.352.587.539s.576.355.962.503l1.372.507c.243.095.491.196.744.303s.453.251.602.432c.148.181.223.423.223.726 0 .208-.047.385-.143.53-.095.145-.223.263-.383.352s-.347.153-.561.191c-.214.039-.442.058-.686.058-.267 0-.505-.033-.712-.098-.208-.065-.395-.156-.562-.271s-.312-.251-.437-.405c-.125-.155-.235-.324-.33-.508l-1.479.659c.119.315.282.6.49.855s.457.476.748.659c.303.184.64.331 1.011.441.372.11.824.165 1.359.165.366.001.701-.03 1.006-.092m-8.019 0c.306-.062.576-.144.811-.245s.437-.212.606-.334c.169-.121.301-.245.396-.369.185-.232.333-.482.446-.753.113-.27.169-.61.169-1.021 0-.344-.039-.638-.116-.881-.077-.244-.166-.449-.267-.615-.143-.214-.347-.429-.615-.646s-.79-.444-1.568-.682c-.392-.113-.739-.226-1.042-.338-.303-.113-.56-.233-.771-.361s-.37-.268-.477-.419-.16-.325-.16-.521c0-.404.127-.709.383-.917.155-.137.341-.232.561-.285.22-.054.479-.081.775-.081.439 0 .811.094 1.113.281.303.187.541.477.713.869l1.434-.695c-.255-.624-.662-1.088-1.22-1.394s-1.244-.459-2.058-.459c-.458 0-.898.057-1.323.169s-.781.279-1.069.499c-.289.22-.506.475-.655.766-.13.231-.221.472-.271.721-.05.25-.076.479-.076.686 0 .238.036.489.107.753.071.265.193.506.365.726.137.172.333.352.588.539s.576.355.962.503l1.373.507c.243.095.491.196.744.303s.453.251.602.432c.148.181.223.423.223.726 0 .208-.048.385-.143.53s-.223.263-.383.352-.348.153-.562.191c-.213.039-.442.058-.686.058-.268 0-.505-.033-.713-.098s-.395-.156-.561-.271c-.167-.116-.312-.251-.437-.405-.125-.155-.235-.324-.33-.508l-1.479.659c.119.315.282.6.49.855s.458.476.749.659c.303.184.64.331 1.011.441s.824.165 1.358.165c.363.001.697-.03 1.003-.092m-10.918 2.935c.338-.095.668-.324.988-.686.321-.362.618-.9.891-1.613l3.991-10.218h-1.782l-2.45 6.495-2.334-6.495h-1.826l3.234 8.944-.418.891c-.125.327-.298.615-.521.864-.223.25-.542.374-.958.374-.148 0-.288-.012-.419-.036v1.586c.161.023.371.036.633.036.309.001.632-.047.971-.142m-8.903-3.136v-5.533c0-.32.07-.673.21-1.06.139-.386.381-.721.726-1.006s.743-.428 1.194-.428c.535 0 .923.137 1.167.41s.366.694.366 1.265v6.352h1.79v-6.824c0-.552-.099-1.051-.298-1.497-.199-.445-.505-.781-.917-1.007-.413-.225-.895-.338-1.448-.338-.641 0-1.186.122-1.634.365-.449.244-.833.576-1.154.998v-4.393h-1.79v12.696zm-3.338 0v-1.479c-.226.023-.452.036-.677.036-.279 0-.506-.036-.682-.107-.175-.071-.313-.178-.414-.32-.101-.143-.169-.321-.205-.535s-.053-.463-.053-.749v-4.82h1.933v-1.407h-1.933v-3.314h-1.782v3.314h-1.212v1.407h1.212v4.838c0 .481.04.919.12 1.314s.226.73.437 1.007c.21.276.5.489.868.641s.84.228 1.417.228c.344 0 .668-.018.971-.054z"/></g></svg>

<?xml version="1.0" encoding="UTF-8" standalone="no"?>
<!DOCTYPE svg PUBLIC "-//W3C//DTD SVG 1.1//EN" "http://www.w3.org/Graphics/SVG/1.1/DTD/svg11.dtd">
<svg width="100%" height="100%" viewBox="0 0 560 400" version="1.1" xmlns="http://www.w3.org/2000/svg" xmlns:xlink="http://www.w3.org/1999/xlink" xml:space="preserve" xmlns:serif="http://www.serif.com/" style="fill-rule:evenodd;clip-rule:evenodd;stroke-linejoin:round;stroke-miterlimit:1.41421;">
    <g transform="matrix(2.63619,0,0,2.63619,59.012,6.59182)">
        <path id="path7" d="M102.23,52.858C102.073,43.223 94.192,35.433 84.521,35.433C74.85,35.433 66.969,43.224 66.812,52.858C60.557,55.596 56.175,61.841 56.175,69.094C56.175,78.863 64.122,86.81 73.891,86.81C77.876,86.81 81.558,85.486 84.521,83.257C87.484,85.486 91.166,86.81 95.151,86.81C104.92,86.81 112.868,78.862 112.868,69.094C112.867,61.842 108.484,55.596 102.23,52.858ZM91.529,67.467C91.119,62.993 89.041,58.996 85.921,56.104C87.764,54.791 89.895,53.86 92.201,53.427C93.766,56.371 95.208,59.946 96.485,63.671C95.105,65.24 93.423,66.537 91.529,67.467ZM84.521,80.966C81.486,78.246 79.498,74.383 79.238,70.061C80.907,70.583 82.682,70.866 84.521,70.866C86.36,70.866 88.135,70.584 89.804,70.061C89.543,74.384 87.555,78.246 84.521,80.966ZM72.556,63.672C73.833,59.947 75.274,56.372 76.84,53.428C79.146,53.861 81.278,54.792 83.12,56.105C80,58.997 77.921,62.994 77.512,67.468C75.618,66.537 73.937,65.24 72.556,63.672ZM71.261,61.993C69.724,59.696 68.768,56.979 68.603,54.055C70.259,53.471 72.038,53.15 73.891,53.15C74.256,53.15 74.616,53.167 74.974,53.191C73.712,55.629 72.474,58.562 71.261,61.993ZM77.755,51.808C79.844,48.329 82.128,46.063 84.521,46.063C86.914,46.063 89.198,48.329 91.287,51.808C88.795,52.365 86.497,53.444 84.521,54.931C82.544,53.444 80.248,52.364 77.755,51.808ZM84.521,69.094C82.668,69.094 80.889,68.773 79.233,68.189C79.478,63.842 81.471,59.955 84.521,57.222C87.57,59.955 89.564,63.842 89.809,68.189C88.152,68.773 86.374,69.094 84.521,69.094ZM94.067,53.19C94.425,53.166 94.786,53.149 95.15,53.149C97.004,53.149 98.782,53.47 100.438,54.054C100.273,56.979 99.317,59.696 97.78,61.992C96.568,58.562 95.329,55.629 94.067,53.19ZM84.521,37.205C92.988,37.205 99.932,43.84 100.434,52.183C98.765,51.661 96.99,51.378 95.151,51.378C94.471,51.378 93.801,51.42 93.141,51.495C90.365,46.707 87.483,44.291 84.521,44.291C81.56,44.291 78.677,46.707 75.901,51.495C75.241,51.42 74.571,51.378 73.891,51.378C72.052,51.378 70.278,51.66 68.608,52.183C69.11,43.839 76.054,37.205 84.521,37.205ZM57.946,69.095C57.946,62.816 61.595,57.376 66.882,54.777C67.2,58.25 68.525,61.434 70.561,64.039C70.529,64.136 70.497,64.229 70.465,64.326C67.918,72.061 66.216,79.873 65.63,82.728C61.026,79.928 57.946,74.864 57.946,69.095ZM73.891,85.04C71.525,85.04 69.281,84.518 67.26,83.59C68.121,79.178 69.749,72.276 71.919,65.587C73.492,67.181 75.363,68.477 77.442,69.387C77.524,74.398 79.693,78.909 83.121,82.086C80.513,83.942 77.329,85.04 73.891,85.04ZM85.921,82.084C89.348,78.907 91.518,74.396 91.6,69.385C93.679,68.475 95.551,67.179 97.124,65.585C99.293,72.274 100.921,79.176 101.783,83.588C99.762,84.516 97.517,85.038 95.151,85.038C91.712,85.04 88.528,83.942 85.921,82.084ZM103.412,82.728C102.826,79.873 101.123,72.061 98.577,64.326C98.545,64.229 98.513,64.136 98.48,64.039C100.517,61.435 101.841,58.25 102.159,54.777C107.447,57.376 111.096,62.816 111.096,69.095C111.096,74.864 108.015,79.928 103.412,82.728Z" style="fill:rgb(0,149,216);fill-rule:nonzero;"/>
        <path id="path9" d="M128.771,106.601C128.519,106.491 128.303,106.335 128.125,106.133C127.947,105.931 127.809,105.689 127.71,105.407C127.612,105.125 127.563,104.812 127.563,104.467L127.563,102.204C127.563,101.824 127.621,101.49 127.737,101.202C127.853,100.914 128.006,100.673 128.195,100.48C128.385,100.287 128.607,100.143 128.859,100.048C129.111,99.953 129.371,99.906 129.638,99.906C129.923,99.906 130.189,99.958 130.435,100.062C130.681,100.166 130.884,100.326 131.041,100.543C131.198,100.76 131.321,101.041 131.411,101.385C131.476,101.64 131.522,101.932 131.549,102.258C131.575,102.585 131.589,102.932 131.589,103.3C131.589,103.585 131.575,103.903 131.549,104.253C131.522,104.604 131.488,104.892 131.446,105.117C131.345,105.634 131.146,106.037 130.849,106.329C130.552,106.62 130.137,106.765 129.602,106.765C129.301,106.766 129.024,106.711 128.771,106.601M127.564,111.079L127.564,107.149C127.701,107.327 127.883,107.511 128.112,107.701C128.341,107.891 128.622,108.041 128.958,108.151C129.294,108.261 129.69,108.316 130.147,108.316C130.521,108.316 130.901,108.254 131.288,108.129C131.674,108.004 132.018,107.786 132.321,107.474C132.624,107.162 132.862,106.771 133.034,106.303C133.17,105.941 133.271,105.514 133.337,105.024C133.402,104.534 133.435,103.96 133.435,103.3C133.435,102.558 133.393,101.905 133.31,101.344C133.227,100.783 133.081,100.291 132.873,99.869C132.362,98.86 131.463,98.355 130.174,98.355C129.538,98.355 129.003,98.484 128.566,98.743C128.129,99.001 127.777,99.345 127.51,99.772L127.466,98.641L125.773,98.641L125.773,111.079L127.564,111.079ZM119.614,106.601C119.362,106.491 119.146,106.335 118.968,106.133C118.789,105.931 118.652,105.689 118.553,105.407C118.454,105.125 118.406,104.812 118.406,104.467L118.406,102.204C118.406,101.824 118.464,101.49 118.579,101.202C118.695,100.914 118.848,100.673 119.038,100.48C119.228,100.287 119.449,100.143 119.701,100.048C119.953,99.953 120.214,99.906 120.481,99.906C120.766,99.906 121.032,99.958 121.278,100.062C121.524,100.166 121.726,100.326 121.884,100.543C122.041,100.76 122.164,101.041 122.254,101.385C122.319,101.64 122.365,101.932 122.392,102.258C122.419,102.585 122.432,102.932 122.432,103.3C122.432,103.585 122.419,103.903 122.392,104.253C122.365,104.604 122.331,104.892 122.289,105.117C122.188,105.634 121.989,106.037 121.692,106.329C121.395,106.62 120.98,106.765 120.445,106.765C120.145,106.766 119.867,106.711 119.614,106.601M118.407,111.079L118.407,107.149C118.543,107.327 118.726,107.511 118.955,107.701C119.184,107.891 119.466,108.041 119.801,108.151C120.137,108.261 120.533,108.316 120.99,108.316C121.365,108.316 121.744,108.254 122.13,108.129C122.516,108.004 122.861,107.786 123.164,107.474C123.467,107.162 123.705,106.771 123.876,106.303C124.013,105.941 124.114,105.514 124.179,105.024C124.245,104.534 124.278,103.96 124.278,103.3C124.278,102.558 124.236,101.905 124.153,101.344C124.07,100.783 123.924,100.291 123.716,99.869C123.205,98.86 122.305,98.355 121.017,98.355C120.381,98.355 119.845,98.484 119.409,98.743C118.972,99.001 118.62,99.345 118.353,99.772L118.308,98.641L116.616,98.641L116.616,111.079L118.407,111.079ZM111.91,107.911C112.37,107.641 112.761,107.283 113.081,106.838L113.099,108.023L114.791,108.023L114.791,98.642L113,98.642L113,104.174C113,104.489 112.932,104.835 112.795,105.212C112.658,105.589 112.416,105.923 112.069,106.214C111.722,106.505 111.328,106.65 110.889,106.65C110.354,106.65 109.956,106.515 109.695,106.245C109.434,105.975 109.303,105.552 109.303,104.975L109.303,98.641L107.512,98.641L107.512,105.465C107.512,106.011 107.592,106.467 107.752,106.833C107.913,107.198 108.122,107.491 108.38,107.71C108.638,107.93 108.929,108.086 109.253,108.178C109.577,108.27 109.901,108.316 110.228,108.316C110.89,108.316 111.449,108.181 111.91,107.911M103.371,108.022L103.371,103.701C103.371,103.309 103.421,102.855 103.522,102.338C103.623,101.821 103.868,101.368 104.257,100.979C104.646,100.59 105.17,100.396 105.829,100.396C106.049,100.396 106.212,100.408 106.319,100.432L106.319,98.623L106.088,98.623C105.482,98.623 104.936,98.799 104.449,99.149C103.962,99.499 103.575,99.989 103.291,100.619L103.273,98.641L101.581,98.641L101.581,108.022L103.371,108.022ZM94.721,108.022L94.721,104.262L95.959,103.006L98.417,108.022L100.448,108.022L97.267,101.67L100.243,98.641L98.114,98.641L94.72,102.106L94.72,95.326L92.93,95.326L92.93,108.022L94.721,108.022ZM85.361,108.022L85.361,102.489C85.361,102.169 85.431,101.816 85.57,101.429C85.71,101.043 85.951,100.708 86.296,100.423C86.64,100.138 87.038,99.995 87.49,99.995C88.024,99.995 88.413,100.132 88.657,100.405C88.9,100.678 89.022,101.099 89.022,101.67L89.022,108.022L90.813,108.022L90.813,101.198C90.813,100.646 90.713,100.147 90.515,99.701C90.316,99.256 90.01,98.92 89.597,98.694C89.184,98.469 88.702,98.356 88.15,98.356C87.485,98.356 86.921,98.49 86.457,98.757C85.994,99.025 85.602,99.381 85.281,99.826L85.263,98.641L83.57,98.641L83.57,108.022L85.361,108.022ZM76.261,101.22C76.365,100.861 76.503,100.575 76.675,100.365C76.847,100.155 77.052,100.006 77.29,99.92C77.527,99.834 77.789,99.791 78.074,99.791C78.377,99.791 78.678,99.85 78.978,99.969C79.278,100.088 79.519,100.361 79.7,100.788C79.881,101.215 79.972,101.809 79.972,102.57L76.088,102.57C76.099,102.029 76.157,101.58 76.261,101.22M79.628,108.111C80.088,107.975 80.478,107.765 80.795,107.483C81.112,107.201 81.384,106.846 81.61,106.419L80.193,105.689C80.116,105.819 80.003,105.971 79.855,106.143C79.707,106.315 79.494,106.465 79.218,106.593C78.942,106.721 78.629,106.785 78.278,106.785C77.951,106.785 77.653,106.743 77.383,106.66C77.112,106.577 76.88,106.434 76.683,106.232C76.487,106.03 76.336,105.76 76.229,105.421C76.122,105.082 76.068,104.661 76.068,104.156L76.068,103.898L81.725,103.898L81.725,102.918C81.725,102.496 81.704,102.054 81.663,101.59C81.622,101.126 81.525,100.694 81.373,100.294C81.222,99.893 80.998,99.538 80.701,99.229C80.433,98.962 80.098,98.75 79.694,98.592C79.29,98.435 78.791,98.356 78.197,98.356C77.556,98.356 77.012,98.438 76.567,98.601C76.122,98.765 75.747,99.004 75.444,99.319C75.218,99.545 75.015,99.837 74.834,100.196C74.653,100.556 74.515,101.022 74.42,101.595C74.325,102.168 74.277,102.814 74.277,103.533C74.277,104.085 74.307,104.583 74.366,105.025C74.426,105.468 74.53,105.876 74.678,106.25C74.928,106.897 75.336,107.404 75.903,107.769C76.47,108.134 77.217,108.317 78.144,108.317C78.673,108.316 79.168,108.248 79.628,108.111M70.425,108.223C70.731,108.161 71.001,108.079 71.236,107.978C71.471,107.877 71.673,107.766 71.842,107.644C72.011,107.523 72.143,107.399 72.238,107.275C72.422,107.043 72.571,106.793 72.683,106.522C72.796,106.252 72.852,105.912 72.852,105.501C72.852,105.157 72.813,104.863 72.736,104.62C72.658,104.376 72.569,104.171 72.468,104.005C72.325,103.791 72.12,103.576 71.853,103.359C71.586,103.142 71.063,102.915 70.285,102.677C69.893,102.564 69.546,102.451 69.243,102.339C68.94,102.226 68.683,102.106 68.472,101.978C68.261,101.85 68.102,101.71 67.995,101.559C67.889,101.408 67.835,101.234 67.835,101.038C67.835,100.634 67.962,100.329 68.218,100.121C68.372,99.984 68.559,99.889 68.779,99.836C68.999,99.782 69.257,99.755 69.554,99.755C69.993,99.755 70.365,99.849 70.668,100.036C70.971,100.223 71.209,100.513 71.38,100.905L72.815,100.21C72.56,99.586 72.153,99.122 71.594,98.816C71.036,98.51 70.35,98.357 69.536,98.357C69.078,98.357 68.638,98.414 68.213,98.526C67.788,98.639 67.431,98.805 67.143,99.025C66.855,99.245 66.637,99.5 66.489,99.791C66.358,100.022 66.267,100.263 66.217,100.512C66.167,100.762 66.141,100.991 66.141,101.198C66.141,101.436 66.177,101.687 66.248,101.951C66.32,102.216 66.441,102.457 66.614,102.677C66.75,102.849 66.946,103.029 67.201,103.216C67.456,103.403 67.777,103.571 68.163,103.719L69.535,104.226C69.778,104.321 70.026,104.422 70.279,104.529C70.532,104.636 70.732,104.78 70.881,104.961C71.029,105.142 71.104,105.384 71.104,105.687C71.104,105.895 71.057,106.072 70.961,106.217C70.866,106.362 70.738,106.48 70.578,106.569C70.418,106.658 70.231,106.722 70.017,106.76C69.803,106.799 69.575,106.818 69.331,106.818C69.064,106.818 68.826,106.785 68.619,106.72C68.411,106.655 68.224,106.564 68.057,106.449C67.89,106.334 67.745,106.198 67.62,106.044C67.495,105.889 67.385,105.72 67.29,105.536L65.811,106.195C65.93,106.51 66.093,106.795 66.301,107.05C66.509,107.305 66.758,107.526 67.049,107.709C67.352,107.893 67.689,108.04 68.06,108.15C68.432,108.26 68.884,108.315 69.419,108.315C69.785,108.316 70.12,108.285 70.425,108.223M62.406,108.223C62.712,108.161 62.982,108.079 63.217,107.978C63.452,107.877 63.654,107.766 63.823,107.644C63.992,107.523 64.124,107.399 64.219,107.275C64.404,107.043 64.552,106.793 64.665,106.522C64.778,106.252 64.834,105.912 64.834,105.501C64.834,105.157 64.795,104.863 64.718,104.62C64.641,104.376 64.552,104.171 64.451,104.005C64.308,103.791 64.104,103.576 63.836,103.359C63.568,103.142 63.046,102.915 62.268,102.677C61.876,102.564 61.529,102.451 61.226,102.339C60.923,102.226 60.666,102.106 60.455,101.978C60.244,101.85 60.085,101.71 59.978,101.559C59.871,101.408 59.818,101.234 59.818,101.038C59.818,100.634 59.945,100.329 60.201,100.121C60.356,99.984 60.542,99.889 60.762,99.836C60.982,99.782 61.241,99.755 61.537,99.755C61.976,99.755 62.348,99.849 62.65,100.036C62.953,100.223 63.191,100.513 63.363,100.905L64.797,100.21C64.542,99.586 64.135,99.122 63.577,98.816C63.019,98.51 62.333,98.357 61.519,98.357C61.061,98.357 60.621,98.414 60.196,98.526C59.771,98.638 59.415,98.805 59.127,99.025C58.838,99.245 58.621,99.5 58.472,99.791C58.342,100.022 58.251,100.263 58.201,100.512C58.151,100.762 58.125,100.991 58.125,101.198C58.125,101.436 58.161,101.687 58.232,101.951C58.303,102.216 58.425,102.457 58.597,102.677C58.734,102.849 58.93,103.029 59.185,103.216C59.44,103.403 59.761,103.571 60.147,103.719L61.52,104.226C61.763,104.321 62.011,104.422 62.264,104.529C62.517,104.636 62.717,104.78 62.866,104.961C63.014,105.142 63.089,105.384 63.089,105.687C63.089,105.895 63.041,106.072 62.946,106.217C62.851,106.362 62.723,106.48 62.563,106.569C62.403,106.658 62.215,106.722 62.001,106.76C61.788,106.799 61.559,106.818 61.315,106.818C61.047,106.818 60.81,106.785 60.602,106.72C60.394,106.655 60.207,106.564 60.041,106.449C59.874,106.333 59.729,106.198 59.604,106.044C59.479,105.889 59.369,105.72 59.274,105.536L57.795,106.195C57.914,106.51 58.077,106.795 58.285,107.05C58.493,107.305 58.743,107.526 59.034,107.709C59.337,107.893 59.674,108.04 60.045,108.15C60.416,108.26 60.869,108.315 61.403,108.315C61.766,108.316 62.1,108.285 62.406,108.223M51.488,111.158C51.826,111.063 52.156,110.834 52.476,110.472C52.797,110.11 53.094,109.572 53.367,108.859L57.358,98.641L55.576,98.641L53.126,105.136L50.792,98.641L48.966,98.641L52.2,107.585L51.782,108.476C51.657,108.803 51.484,109.091 51.261,109.34C51.038,109.59 50.719,109.714 50.303,109.714C50.155,109.714 50.015,109.702 49.884,109.678L49.884,111.264C50.045,111.287 50.255,111.3 50.517,111.3C50.826,111.301 51.149,111.253 51.488,111.158M42.585,108.022L42.585,102.489C42.585,102.169 42.655,101.816 42.795,101.429C42.934,101.043 43.176,100.708 43.521,100.423C43.866,100.138 44.264,99.995 44.715,99.995C45.25,99.995 45.638,100.132 45.882,100.405C46.126,100.678 46.248,101.099 46.248,101.67L46.248,108.022L48.038,108.022L48.038,101.198C48.038,100.646 47.939,100.147 47.74,99.701C47.541,99.256 47.235,98.92 46.823,98.694C46.41,98.469 45.928,98.356 45.375,98.356C44.734,98.356 44.189,98.478 43.741,98.721C43.292,98.965 42.908,99.297 42.587,99.719L42.587,95.326L40.797,95.326L40.797,108.022L42.585,108.022ZM39.247,108.022L39.247,106.543C39.021,106.566 38.795,106.579 38.57,106.579C38.291,106.579 38.064,106.543 37.888,106.472C37.713,106.401 37.575,106.294 37.474,106.152C37.373,106.009 37.305,105.831 37.269,105.617C37.233,105.403 37.216,105.154 37.216,104.868L37.216,100.048L39.149,100.048L39.149,98.641L37.216,98.641L37.216,95.327L35.434,95.327L35.434,98.641L34.222,98.641L34.222,100.048L35.434,100.048L35.434,104.886C35.434,105.367 35.474,105.805 35.554,106.2C35.634,106.595 35.78,106.93 35.991,107.207C36.201,107.483 36.491,107.696 36.859,107.848C37.227,108 37.699,108.076 38.276,108.076C38.62,108.076 38.944,108.058 39.247,108.022Z" style="fill:rgb(0,149,216);fill-rule:nonzero;"/>
    </g>
</svg>
